Adwaita++/emblems/16/emblem-favorite.svg

<svg fill="none" height="16" viewBox="0 0 16 16" width="16" xmlns="http://www.w3.org/2000/svg">
  <path d="m13.6 1h-11.2c-.7732 0-1.4.6268-1.4 1.4v11.2c0 .7732.6268 1.4 1.4 1.4h11.2c.7732 0 1.4-.6268 1.4-1.4v-11.2c0-.7732-.6268-1.4-1.4-1.4z" fill="#c061cb"/>
  <path clip-rule="evenodd" d="m7.94287 4.83875c1.88443-1.93843 4.47403-.15177 4.45703 1.68658-.0156 1.68058-1.2607 2.48543-4.3889 5.47467-3.27424-2.78085-4.42787-3.42213-4.41084-5.41607.01702-2.06404 2.23398-3.61311 4.34271-1.74518z" fill="#f7f6f6" fill-rule="evenodd"/>
</svg>

<svg xmlns="http://www.w3.org/2000/svg" fill="none" width="16" height="16" viewBox="0 0 16 16">
 <path fill="url(#paint0_linear)" d="M13.6 1H2.4C1.6268 1 1 1.6268 1 2.4V13.6C1 14.3732 1.6268 15 2.4 15H13.6C14.3732 15 15 14.3732 15 13.6V2.4C15 1.6268 14.3732 1 13.6 1Z"/>
 <path fill="#F7F6F6" fill-rule="evenodd" d="M7.94287 4.83875C9.8273 2.90032 12.4169 4.68698 12.3999 6.52533C12.3843 8.20591 11.1392 9.01076 8.011 12C4.73676 9.21915 3.58313 8.57787 3.60016 6.58393C3.61718 4.51989 5.83414 2.97082 7.94287 4.83875Z" clip-rule="evenodd"/>
 <defs>
  <linearGradient id="paint0_linear" x1="1" x2="15" y1="8" y2="8" gradientUnits="userSpaceOnUse">
   <stop stop-color="#C061CB"/>
  </linearGradient>
 </defs>
</svg>
